src/Stylish/96/devices/media-optical.svg

<?xml version="1.0" encoding="UTF-8" standalone="no"?>
<!-- Created with Inkscape (http://www.inkscape.org/) -->

<svg
   width="96"
   height="96"
   viewBox="0 0 96 96.000005"
   version="1.1"
   id="svg5"
   sodipodi:docname="media-optical.svg"
   inkscape:version="1.2.1 (9c6d41e410, 2022-07-14)"
   xmlns:inkscape="http://www.inkscape.org/namespaces/inkscape"
   xmlns:sodipodi="http://sodipodi.sourceforge.net/DTD/sodipodi-0.dtd"
   xmlns:xlink="http://www.w3.org/1999/xlink"
   xmlns="http://www.w3.org/2000/svg"
   xmlns:svg="http://www.w3.org/2000/svg">
  <sodipodi:namedview
     id="namedview7"
     pagecolor="#ffffff"
     bordercolor="#666666"
     borderopacity="1.0"
     inkscape:showpageshadow="2"
     inkscape:pageopacity="0.0"
     inkscape:pagecheckerboard="0"
     inkscape:deskcolor="#d1d1d1"
     inkscape:document-units="px"
     showgrid="false"
     inkscape:zoom="4.125"
     inkscape:cx="-6.3030303"
     inkscape:cy="68.606061"
     inkscape:window-width="1920"
     inkscape:window-height="1004"
     inkscape:window-x="0"
     inkscape:window-y="0"
     inkscape:window-maximized="1"
     inkscape:current-layer="svg5" />
  <defs
     id="defs2">
    <linearGradient
       inkscape:collect="always"
       xlink:href="#linearGradient22024"
       id="linearGradient2881"
       x1="10.488708"
       y1="3.0000002"
       x2="29.000002"
       y2="23.519243"
       gradientUnits="userSpaceOnUse"
       gradientTransform="matrix(3.230769,0,0,3.230769,-3.692308,-3.692307)" />
    <linearGradient
       inkscape:collect="always"
       id="linearGradient22024">
      <stop
         style="stop-color:#cccccc;stop-opacity:1;"
         offset="0"
         id="stop22020" />
      <stop
         style="stop-color:#f5f5f5;stop-opacity:1;"
         offset="0.5"
         id="stop2585" />
      <stop
         style="stop-color:#cccccc;stop-opacity:1;"
         offset="1"
         id="stop22022" />
    </linearGradient>
  </defs>
  <path
     id="path2871"
     style="opacity:0.2;fill:#000000;fill-opacity:1;stroke:none;stroke-width:6.46154;stroke-linecap:round;stroke-linejoin:round;stroke-dasharray:none;stroke-opacity:1"
     d="M 48,7 A 42,42 0 0 0 6,49 42,42 0 0 0 48,91 42,42 0 0 0 90,49 42,42 0 0 0 48,7 Z m 0,34 a 8,8 0 0 1 8,8 8,8 0 0 1 -8,8 8,8 0 0 1 -8,-8 8,8 0 0 1 8,-8 z" />
  <path
     id="path2873"
     style="fill:url(#linearGradient2881);fill-opacity:1;stroke:none;stroke-width:6.46155;stroke-linecap:round;stroke-linejoin:round;stroke-dasharray:none;stroke-opacity:1"
     d="M 48 6 C 24.804064 6 6 24.804063 6 48 C 6 71.195936 24.804064 90 48 90 C 71.195937 90 90 71.195936 90 48 C 90 24.804063 71.195937 6 48 6 z M 48 40 C 52.418274 40 56 43.581725 56 48 C 56 52.418274 52.418274 56 48 56 C 43.581726 56 40 52.418274 40 48 C 40 43.581725 43.581726 40 48 40 z " />
  <path
     id="path9773"
     style="opacity:0.2;fill:#000000;stroke-width:2;stroke-linecap:round;stroke-linejoin:round"
     d="m 48,32 c -8.836556,0 -16,7.163444 -16,16 0,8.836556 7.163444,16 16,16 8.836556,0 16,-7.163444 16,-16 0,-8.836556 -7.163444,-16 -16,-16 z m 0,8 c 4.418278,0 8,3.581722 8,8 0,4.418278 -3.581722,8 -8,8 -4.418278,0 -8,-3.581722 -8,-8 0,-4.418278 3.581722,-8 8,-8 z"
     sodipodi:nodetypes="ssssssssss" />
</svg>

<?xml version="1.0" encoding="UTF-8" standalone="no"?>
<!-- Created with Inkscape (http://www.inkscape.org/) -->

<svg
   width="96"
   height="96"
   viewBox="0 0 96 96.000005"
   version="1.1"
   id="svg5"
   sodipodi:docname="media-optical.svg"
   inkscape:version="1.2.1 (9c6d41e410, 2022-07-14)"
   xmlns:inkscape="http://www.inkscape.org/namespaces/inkscape"
   xmlns:sodipodi="http://sodipodi.sourceforge.net/DTD/sodipodi-0.dtd"
   xmlns:xlink="http://www.w3.org/1999/xlink"
   xmlns="http://www.w3.org/2000/svg"
   xmlns:svg="http://www.w3.org/2000/svg">
  <sodipodi:namedview
     id="namedview7"
     pagecolor="#ffffff"
     bordercolor="#666666"
     borderopacity="1.0"
     inkscape:showpageshadow="2"
     inkscape:pageopacity="0.0"
     inkscape:pagecheckerboard="0"
     inkscape:deskcolor="#d1d1d1"
     inkscape:document-units="px"
     showgrid="false"
     inkscape:zoom="4.125"
     inkscape:cx="37.454545"
     inkscape:cy="65.939394"
     inkscape:window-width="1920"
     inkscape:window-height="1004"
     inkscape:window-x="0"
     inkscape:window-y="0"
     inkscape:window-maximized="1"
     inkscape:current-layer="svg5" />
  <defs
     id="defs2">
    <linearGradient
       inkscape:collect="always"
       xlink:href="#linearGradient22024"
       id="linearGradient2881"
       x1="2.9999986"
       y1="2.999999"
       x2="29.000004"
       y2="29.000004"
       gradientUnits="userSpaceOnUse"
       gradientTransform="matrix(3.2307686,0,0,3.2307686,-3.6923014,-3.692303)" />
    <linearGradient
       inkscape:collect="always"
       id="linearGradient22024">
      <stop
         style="stop-color:#cdcdcd;stop-opacity:1;"
         offset="0"
         id="stop22020" />
      <stop
         style="stop-color:#eff0f1;stop-opacity:1;"
         offset="1"
         id="stop22022" />
    </linearGradient>
  </defs>
  <path
     id="path2871"
     style="opacity:0.2;fill:#000000;fill-opacity:1;stroke:none;stroke-width:6.46154;stroke-linecap:round;stroke-linejoin:round;stroke-dasharray:none;stroke-opacity:1"
     d="M 48,7 A 42,42 0 0 0 6,49 42,42 0 0 0 48,91 42,42 0 0 0 90,49 42,42 0 0 0 48,7 Z m 0,34 a 8,8 0 0 1 8,8 8,8 0 0 1 -8,8 8,8 0 0 1 -8,-8 8,8 0 0 1 8,-8 z" />
  <path
     id="path2873"
     style="fill:url(#linearGradient2881);fill-opacity:1;stroke:none;stroke-width:6.46154;stroke-linecap:round;stroke-linejoin:round;stroke-dasharray:none;stroke-opacity:1"
     d="M 48,6 A 41.999992,41.999992 0 0 0 6,48 41.999992,41.999992 0 0 0 48,90 41.999992,41.999992 0 0 0 90,48 41.999992,41.999992 0 0 0 48,6 Z m 0,34 a 8,8 0 0 1 8,8 8,8 0 0 1 -8,8 8,8 0 0 1 -8,-8 8,8 0 0 1 8,-8 z" />
  <path
     id="path9773"
     style="opacity:0.2;fill:#000000;stroke-width:2;stroke-linecap:round;stroke-linejoin:round"
     d="M 48,32 A 16,16 0 0 0 32,48 16,16 0 0 0 48,64 16,16 0 0 0 64,48 16,16 0 0 0 48,32 Z m 0,8 a 8,8 0 0 1 8,8 8,8 0 0 1 -8,8 8,8 0 0 1 -8,-8 8,8 0 0 1 8,-8 z" />
</svg>
